X:1
T:Amelia Earhart's Last Flight
M:4/4
L:1/4
K:A
G/2-F/2| E/2 E3/2 A3/2 B/2| c/2 c3/2- c/2 z/2 B/2A/2| B/2 B3/2 c B|\
 F3| F| G G G F| E E F E| E4-| E z F =F| E/2 E3/2 A B| c/2 c3/2- c/2 z/2 B/2A/2|\
 B/2 B3/2 c B| F3 F| G G F E| d/2 B3/2 G B| A4-| A2 z| B c| d2 d d|\
 d2 c B| c4-| c z| A B| c2 c c| c2 B A| B4-| B z| F =F| E2 A B| c c B A|\
 B2 F2-| D z| =G| G2 z E| d/2 d3/2 c B| A4-| A2 z||
